X: 305672
M: 2/4
L: 1/16
K: Clyd
c2e2c2e2 | (g^f)(ag) (=fedc) | d2f2A2B2 | cBce G2AB |\
c2e2c2e2 | g^fag =fedc | f3d cBAB | d4 c2 H|]
agfg |\
d2Tg2B2Tg2 | cBcd e2g2 | (3(fgf) (3(efe) d2g2 | e4 c2Tg2 |\
d2g2B2g2 | cBcd e2g2 | ^fgab c'2^f2 | a4 "^D.C."g2 |]
e2 |\
a>bc'>b a>e (3e^de | b>c'd'>c' b>e (3(e^de) |\
c'>e (3(e^de) b>e (3(e^de) | a>ec'>a b>ee'>e |
a>bc'>b a>e (3e^de | b>c'd'>c' b>e (3e^de |\
c'>ba>c' b>ef>^g | a2c'2"^D.C."a2 |]


